X:329
T:B329-  Northern Nanny
Q:1/4=120
L:1/4
M:C
K:C
G|cCEA|G3c|B3/2c/d3/2c/|BG2G|\
cCEA|G2c2|E3/2F/D3/2E/|C(C2:|C)|\
G2EC|C3/2C/ FF|D3/2D/GG|E3/2F/AA|\
F2c2|BGG3/2G/|AFGG|dd2d|\
e3/2d/cB|cc2|]
